X:63
T:I am asleep
T:Tha mi am chadal
R:Slow Air
S:Simon Fraser Collection
N:No.34
N:"Ancient simple set"
O:Scottish
O:Scottish
O:Scottish, Irish
M:3/4
L:1/8
K:F
CD/E/ F4|F4 A2|GABAGF|D4 C2|A>Bc>e f2|A3B G2|1 F6:|2 F4||
c>d|_e3 gfe|d2 e2 f2|c3 dfg|f2d2c2|_edegfe|d3=e f2|c2 BAGF|F2D2C2|
f2e2d2|c2B2A2|G3 FAG|F3 G/A/ C2|D>E F4|AgedcB|A3B G2|F6||

